source/img/sprite/mask.svg

<svg class="mask">
  <path fill="#C4C4C4" d="m1083.33,0.75244l10.42,0l0,10.80276l11.08,0l0,10.8027l11.08,0l0,10.8026l11.08,0l0,10.8028l11.08,0l0,10.8026l11.08,0l0,10.9492l0,3.4048l0,374.6401l0,17.382l0,28.06l0,3.405l0,10.949l-11.08,0l0,10.803l-11.08,0l0,10.803l-11.08,0l0,10.802l-11.08,0l0,10.803l-11.08,0l0,10.803l-10.42,0l-3.93,0l-879.096,0l-32.166,0l-101.4842,0l-10.4233,0l0,-10.803l-11.0792,0l0,-10.803l-11.0781,0l0,-10.802l-11.0791,0l0,-10.803l-11.0771,0l0,-10.803l-11.07911,0l0,-10.949l0,-3.405l0.00056,-33.559l0,-24.727l-0.00056,-361.7961l0,-3.4047l0,-10.9493l11.07911,0l0,-10.8027l11.0771,0l0,-10.8026l11.0791,0l0,-10.8028l11.0781,0l0,-10.8026l11.0792,0l0,-10.8027l10.4233,0l3.9307,0l106.2765,-0.00006l902.539,0l3.93,0zm-1060.3292,546.01556l0,-10.801l-11.0775,0l0,-10.801l-11.08443,0l0,10.801l11.08443,0l0,10.801l-10.97811,0l0,10.802l10.97811,0l0,-10.802l11.0775,0zm0,0l0,10.695l11.0776,0l0,-10.695l-11.0776,0zm0,-524.4129l0,-10.8012l11.0776,0l0,-10.69494l-11.0776,0l0,10.69494l-11.0775,0l0,-10.80146l-10.97811,0l0,10.80146l10.97811,0l0,10.8012l-11.08443,0l0,10.8012l11.08443,0l0,-10.8012l11.0775,0zm1103.9892,-10.801l0,10.8013l11.07,0l0,10.8012l11.09,0l0,-10.8012l-11.09,0l0,-10.8013l10.98,0l0,-10.80141l-10.98,0l0,10.80141l-11.07,0zm0,0l0,-10.69489l-11.08,0l0,10.69489l11.08,0zm0,524.4129l0,10.801l-11.08,0l0,10.695l11.08,0l0,-10.695l11.07,0l0,10.802l10.98,0l0,-10.802l-10.98,0l0,-10.801l11.09,0l0,-10.801l-11.09,0l0,10.801l-11.07,0z" clip-rule="evenodd" fill-rule="evenodd"/>
</svg>

<svg class="svg-mask" viewBox="0 0 1 1">
            <defs>
              <clipPath id="mask" clipPathUnits="objectBoundingBox">
                <path fill-rule="evenodd" clip-rule="evenodd" d="M1083.33 0.752441H1093.75V11.5552H1104.83V22.3579H1115.91V33.1605H1126.99V43.9633H1138.07V54.7659H1149.15L1149.15 65.7151L1149.15 69.1199L1149.15 443.76L1149.15 461.142L1149.15 489.202V492.607V503.556H1138.07V514.359H1126.99V525.162H1115.91V535.964H1104.83V546.767H1093.75V557.57H1083.33H1079.4H200.304H168.138H66.6538L56.2305 557.57V546.767H45.1513V535.964H34.0732V525.162H22.9941V514.359H11.917V503.556H0.837891V492.607V489.202L0.838453 455.643V430.916L0.837891 69.1199V65.7152V54.7659H11.917V43.9632H22.9941V33.1606H34.0732V22.3578H45.1513V11.5552H56.2305V0.752502H66.6538H70.5845L176.861 0.752441H1079.4H1083.33ZM23.0008 546.768V535.967H11.9233V525.166H0.838867V535.967H11.9233V546.768H0.945194V557.57H11.9233V546.768H23.0008ZM23.0008 546.768V557.463H34.0784V546.768H23.0008ZM23.0008 22.3551V11.5539H34.0784V0.858965H23.0008V11.5539H11.9233V0.752441H0.945194V11.5539H11.9233V22.3551H0.838867V33.1563H11.9233V22.3551H23.0008ZM1126.99 11.5541V22.3554H1138.06V33.1566H1149.15V22.3554H1138.06V11.5541H1149.04V0.752686H1138.06V11.5541H1126.99ZM1126.99 11.5541V0.859209H1115.91V11.5541H1126.99ZM1126.99 535.967V546.768H1115.91V557.463H1126.99V546.768H1138.06V557.57H1149.04V546.768H1138.06V535.967H1149.15V525.166H1138.06V535.967H1126.99Z" fill="#C4C4C4"/>
              </clipPath>
            </defs>
          </svg>
